resources/haticons/SVG/twitch1.svg

<!-- Generated by IcoMoon.io -->
<svg version="1.1" xmlns="http://www.w3.org/2000/svg" width="24" height="24" viewBox="0 0 24 24">
<title>twitch1</title>
<path d="M2.089 0l-1.564 4.175v16.694h5.736v3.131h3.132l3.127-3.132h4.695l6.26-6.258v-14.61h-21.386zM4.175 2.085h17.215v11.479l-3.652 3.652h-5.738l-3.127 3.127v-3.127h-4.698v-15.131zM9.915 12.522h2.085v-6.26h-2.085v6.26zM15.65 12.522h2.086v-6.26h-2.086v6.26z"></path>
</svg>

<svg xmlns="http://www.w3.org/2000/svg" width="24" height="24"><path d="M2.089 0L.525 4.175v16.694h5.736V24h3.132l3.127-3.132h4.695l6.26-6.258V0H2.089zm2.086 2.085H21.39v11.479l-3.652 3.652H12l-3.127 3.127v-3.127H4.175V2.085zm5.74 10.437H12v-6.26H9.915v6.26zm5.735 0h2.086v-6.26H15.65v6.26z"/></svg>
